style/icon.svg

<svg height="45pt" viewBox="0 0 45 45" width="45pt" xmlns="http://www.w3.org/2000/svg" xmlns:xlink="http://www.w3.org/1999/xlink"><clipPath id="a"><path d="m20 9h22.238281v26h-22.238281zm0 0"/></clipPath><clipPath id="b"><path d="m2.640625 0h21.359375v24h-21.359375zm0 0"/></clipPath><clipPath id="c"><path d="m2.640625 20h21.359375v25h-21.359375zm0 0"/></clipPath><path d="m4.171875 22 17.535156-10.125v20.25zm0 0" fill="#800080"/><path d="m40.414062 22-17.539062-10.125v20.25zm0 0" fill="#fff"/><g clip-path="url(#a)"><path d="m106.414062 27-17.539062-10.125v20.25zm0 0" fill="none" stroke="#000" stroke-linecap="square" stroke-miterlimit="3.25" stroke-width=".5" transform="translate(-66 -5)"/></g><path d="m21.125 10.863281-17.539062-10.125v20.25zm0 0" fill="#fff"/><g clip-path="url(#b)"><path d="m87.125 15.863281-17.539062-10.125v20.25zm0 0" fill="none" stroke="#000" stroke-linecap="square" stroke-miterlimit="3.25" stroke-width=".5" transform="translate(-66 -5)"/></g><path d="m21.125 33.136719-17.539062-10.125v20.25zm0 0" fill="#fff"/><g clip-path="url(#c)"><path d="m87.125 38.136719-17.539062-10.125v20.25zm0 0" fill="none" stroke="#000" stroke-linecap="square" stroke-miterlimit="3.25" stroke-width=".5" transform="translate(-66 -5)"/></g></svg>

<?xml version="1.0" encoding="UTF-8"?>
<svg xmlns="http://www.w3.org/2000/svg" xmlns:xlink="http://www.w3.org/1999/xlink" width="45pt" height="45pt" viewBox="0 0 45 45" version="1.1">
<defs>
<clipPath id="clip1">
  <path d="M 20 9 L 42.238281 9 L 42.238281 35 L 20 35 Z M 20 9 "/>
</clipPath>
<clipPath id="clip2">
  <path d="M 2.640625 0 L 24 0 L 24 24 L 2.640625 24 Z M 2.640625 0 "/>
</clipPath>
<clipPath id="clip3">
  <path d="M 2.640625 20 L 24 20 L 24 45 L 2.640625 45 Z M 2.640625 20 "/>
</clipPath>
</defs>
<g id="surface36">
<path style=" stroke:none;fill-rule:nonzero;fill:rgb(50.000763%,0%,50.000763%);fill-opacity:1;" d="M 4.171875 22 L 21.707031 11.875 L 21.707031 32.125 Z M 4.171875 22 "/>
<path style=" stroke:none;fill-rule:nonzero;fill:rgb(100%,100%,100%);fill-opacity:1;" d="M 40.414062 22 L 22.875 11.875 L 22.875 32.125 Z M 40.414062 22 "/>
<g clip-path="url(#clip1)" clip-rule="nonzero">
<path style="fill:none;stroke-width:0.5;stroke-linecap:square;stroke-linejoin:miter;stroke:rgb(0%,0%,0%);stroke-opacity:1;stroke-miterlimit:3.25;" d="M 106.414062 27 L 88.875 16.875 L 88.875 37.125 Z M 106.414062 27 " transform="matrix(1,0,0,1,-66,-5)"/>
</g>
<path style=" stroke:none;fill-rule:nonzero;fill:rgb(100%,100%,100%);fill-opacity:1;" d="M 21.125 10.863281 L 3.585938 0.738281 L 3.585938 20.988281 Z M 21.125 10.863281 "/>
<g clip-path="url(#clip2)" clip-rule="nonzero">
<path style="fill:none;stroke-width:0.5;stroke-linecap:square;stroke-linejoin:miter;stroke:rgb(0%,0%,0%);stroke-opacity:1;stroke-miterlimit:3.25;" d="M 87.125 15.863281 L 69.585938 5.738281 L 69.585938 25.988281 Z M 87.125 15.863281 " transform="matrix(1,0,0,1,-66,-5)"/>
</g>
<path style=" stroke:none;fill-rule:nonzero;fill:rgb(100%,100%,100%);fill-opacity:1;" d="M 21.125 33.136719 L 3.585938 23.011719 L 3.585938 43.261719 Z M 21.125 33.136719 "/>
<g clip-path="url(#clip3)" clip-rule="nonzero">
<path style="fill:none;stroke-width:0.5;stroke-linecap:square;stroke-linejoin:miter;stroke:rgb(0%,0%,0%);stroke-opacity:1;stroke-miterlimit:3.25;" d="M 87.125 38.136719 L 69.585938 28.011719 L 69.585938 48.261719 Z M 87.125 38.136719 " transform="matrix(1,0,0,1,-66,-5)"/>
</g>
</g>
</svg>
